<?xml version="1.0" encoding="UTF-8"?>
<map version="1.10" tiledversion="1.12.0" orientation="orthogonal" renderorder="right-down" width="50" height="50" tilewidth="32" tileheight="32" infinite="0" nextlayerid="7" nextobjectid="1">
 <tileset firstgid="1" source="../TiledSets/TileSeti.tsx"/>
 <tileset firstgid="1289" source="../TiledSets/TileSeti2.tsx"/>
 <layer id="6" name="Collision" width="50" height="50" visible="0">
  <data encoding="csv">
0,0,0,0,0,0,0,0,0,0,57,0,0,0,57,57,57,0,0,0,0,0,0,0,0,0,0,0,0,0,0,0,57,0,0,0,0,0,0,0,0,0,0,0,0,0,0,0,0,57,
0,0,0,0,0,0,0,0,0,0,57,0,0,0,0,57,57,0,0,0,0,0,0,0,0,0,0,0,0,0,0,0,57,0,0,57,57,57,57,0,0,0,0,0,0,0,0,0,0,0,
0,0,0,0,0,0,0,0,57,57,0,0,0,0,57,57,57,0,0,0,0,0,0,57,57,0,0,0,0,57,57,0,57,0,0,0,0,0,0,0,0,0,0,57,57,0,0,0,0,0,
0,0,0,0,0,0,0,57,0,0,0,0,57,57,0,0,0,0,0,0,0,0,0,0,0,0,0,0,0,0,0,0,57,57,0,57,57,0,0,0,57,57,0,0,0,0,0,0,57,57,
0,0,0,0,0,0,57,57,0,57,0,0,0,0,0,57,57,0,0,0,0,0,0,0,0,0,0,0,0,0,0,0,57,0,0,57,57,0,0,0,0,0,0,0,0,0,0,0,0,0,
0,0,0,0,0,57,57,0,0,0,0,0,0,0,0,57,57,0,0,0,0,0,0,0,0,0,0,0,0,0,0,0,57,57,57,0,0,0,0,0,0,0,0,0,0,0,0,0,0,57,
0,0,57,0,57,57,57,57,57,57,0,0,0,0,0,57,57,0,0,0,0,0,0,0,0,0,0,0,0,0,0,0,57,0,0,0,0,0,0,0,0,0,0,0,0,0,0,0,0,0,
57,57,57,57,57,0,57,57,57,0,57,57,0,0,0,57,57,0,0,0,0,0,0,0,0,0,0,0,0,57,57,0,57,0,0,0,0,0,0,0,0,0,0,57,0,0,0,0,57,0,
0,57,0,0,0,0,0,0,0,0,0,0,0,0,0,57,57,57,57,0,0,0,0,0,0,0,0,0,0,0,0,0,57,57,0,0,0,0,0,0,0,0,0,0,0,0,0,0,0,0,
57,0,0,0,57,57,57,0,57,57,0,0,0,0,0,0,57,0,0,0,0,0,0,0,0,0,0,0,0,0,0,0,57,57,57,0,57,57,57,57,57,57,57,57,57,57,57,57,57,57,
0,0,0,0,0,0,0,0,0,0,0,57,57,0,0,0,57,57,0,0,0,0,0,0,0,0,0,0,0,0,0,0,57,0,57,0,57,0,0,0,0,0,0,0,0,0,0,0,0,0,
0,57,57,57,0,0,0,0,0,0,0,0,0,0,0,0,57,57,0,0,0,0,0,0,0,0,0,0,0,0,0,0,0,57,57,0,57,57,57,57,57,57,57,57,57,57,57,57,57,57,
0,0,0,0,0,0,0,0,57,0,0,0,0,0,0,0,57,57,0,0,0,0,0,0,0,0,0,0,0,0,0,0,0,0,0,0,0,0,0,0,0,0,0,0,0,0,0,0,0,0,
0,0,57,0,0,0,0,0,0,0,57,57,0,0,0,57,57,57,0,0,0,0,0,0,0,0,0,0,0,0,0,0,0,0,0,0,0,0,0,0,0,0,0,0,0,0,0,0,0,0,
0,0,0,0,57,57,0,0,0,0,0,0,0,0,0,0,0,0,0,0,0,0,0,0,0,0,0,0,0,0,0,0,0,0,0,0,0,0,0,0,0,0,0,0,0,0,0,0,57,57,
0,0,0,0,0,0,0,0,0,0,0,0,0,0,0,0,0,57,57,0,0,0,0,0,0,57,0,57,57,0,0,0,0,0,0,0,0,0,0,0,0,0,0,0,57,57,0,0,0,0,
0,0,0,0,0,0,0,0,0,0,0,0,0,0,0,0,0,57,57,57,0,0,0,0,0,57,57,57,57,0,0,0,0,0,0,0,0,0,0,0,0,0,0,0,0,0,0,0,0,0,
0,0,0,0,0,0,57,57,0,0,0,57,57,0,0,0,0,0,57,57,57,57,0,0,0,0,0,0,0,0,57,57,0,0,0,0,0,0,0,0,0,0,0,0,0,0,0,0,0,0,
57,57,0,0,0,0,0,0,0,0,0,0,0,0,0,0,0,0,57,57,0,0,0,0,0,0,0,0,0,0,0,0,0,0,0,0,0,0,0,0,0,0,0,0,0,0,0,57,57,0,
57,0,57,57,0,0,0,0,0,0,0,0,0,0,0,0,0,0,57,57,57,0,0,0,0,0,0,0,0,0,0,0,0,0,0,0,0,0,0,0,0,0,0,0,0,0,0,0,0,0,
57,57,0,0,57,57,0,0,0,0,0,0,0,0,0,0,0,0,0,57,57,0,0,0,0,0,0,0,0,0,0,0,0,0,0,0,0,0,57,57,0,0,0,0,0,0,0,0,0,0,
0,57,57,57,0,0,0,0,0,0,0,0,0,0,0,0,0,0,0,57,57,0,0,0,0,0,0,0,0,0,0,0,0,0,0,0,0,0,0,0,0,0,0,0,0,0,57,57,0,0,
0,57,57,57,0,57,0,0,0,0,0,0,0,0,0,0,0,0,0,57,57,0,0,0,0,0,0,0,0,0,0,0,0,0,0,0,0,0,0,0,0,0,0,0,0,0,0,0,0,0,
0,57,0,0,0,0,0,0,0,0,0,0,0,0,0,57,57,0,0,57,57,57,0,0,0,0,0,0,57,57,57,0,0,0,0,0,0,0,0,57,0,0,0,0,0,0,0,0,0,0,
0,57,57,0,0,0,0,0,0,0,0,0,0,0,0,0,0,0,0,0,57,57,57,57,0,0,0,57,57,57,57,0,0,57,57,0,57,0,0,57,0,0,0,0,0,0,0,0,0,0,
0,0,57,57,0,57,0,57,57,0,0,0,57,0,0,0,0,0,0,0,57,57,0,0,0,0,57,57,0,57,0,0,0,57,57,0,0,0,0,0,0,0,0,0,0,0,0,0,0,0,
0,0,0,57,0,0,0,0,0,0,0,0,0,0,0,0,0,0,0,0,57,57,0,0,0,57,57,57,57,57,0,57,57,0,0,0,0,0,0,0,0,0,0,0,0,0,0,0,0,0,
0,0,0,57,57,57,0,0,0,0,0,0,0,0,0,0,0,57,0,0,57,57,0,0,0,0,0,0,0,57,0,0,0,0,0,0,0,0,0,0,0,0,0,0,0,0,0,0,0,0,
0,0,0,0,0,57,57,0,0,0,57,0,0,0,0,0,0,0,0,0,57,57,0,0,0,0,0,0,0,0,0,0,0,0,0,0,57,0,0,0,0,0,0,0,0,0,0,0,0,0,
0,0,0,0,0,57,57,0,0,0,0,0,0,0,0,0,0,0,0,0,57,57,0,0,0,0,0,0,0,57,0,57,57,0,57,0,0,0,0,0,0,0,0,0,0,57,57,0,0,0,
0,0,0,0,0,57,0,0,0,0,0,0,57,57,0,0,0,0,0,0,57,57,0,0,0,0,0,0,0,0,0,0,0,0,0,0,0,0,0,0,0,0,0,0,0,0,0,0,0,0,
0,0,0,0,0,57,0,0,0,0,0,0,0,0,0,0,0,0,0,57,57,57,57,0,0,0,0,0,0,0,0,0,0,0,0,0,0,0,0,0,0,0,0,0,0,0,0,0,0,0,
0,0,0,0,57,57,0,0,57,0,0,0,0,0,0,0,0,57,0,0,0,0,0,0,0,0,0,0,0,0,0,0,0,0,0,0,0,0,0,0,0,0,0,0,0,0,0,0,0,0,
0,0,0,0,57,0,0,0,0,0,0,0,0,0,0,0,0,0,0,0,57,57,0,0,0,0,0,0,0,0,0,0,0,0,0,0,0,0,0,0,0,0,0,0,0,0,0,0,0,0,
0,0,0,57,57,0,57,0,0,57,0,0,0,0,57,0,0,57,57,57,57,57,57,0,0,0,0,0,0,0,0,0,0,0,0,0,0,57,57,0,0,0,0,0,0,0,0,0,0,0,
57,57,57,57,0,0,0,0,0,0,0,0,0,0,0,57,57,57,0,0,0,0,57,57,57,57,0,0,0,0,0,0,0,0,0,0,0,0,0,0,0,0,0,0,57,57,0,0,0,0,
57,57,0,0,0,0,0,0,0,0,57,57,57,57,57,57,0,0,0,0,0,0,0,57,57,0,0,0,0,0,0,0,0,0,0,0,0,0,0,0,0,0,0,0,0,0,0,0,0,0,
57,57,57,57,57,57,0,0,0,57,57,0,0,0,0,0,0,0,0,0,0,0,0,57,57,57,57,57,57,57,0,0,0,0,0,0,0,0,0,0,0,0,0,0,0,0,0,0,0,0,
57,0,0,57,0,57,0,0,0,57,0,0,0,0,0,0,0,0,0,0,0,0,0,0,0,0,57,57,0,57,57,0,0,0,0,0,0,0,0,0,0,0,0,57,57,0,0,0,0,0,
0,0,0,57,57,0,0,57,57,57,0,0,0,0,0,0,0,0,0,0,0,0,0,0,0,0,0,57,57,0,57,0,57,57,57,0,0,0,0,57,57,0,57,57,57,57,0,0,0,0,
0,0,0,0,57,57,57,57,57,57,0,0,0,0,0,0,0,0,0,0,0,0,0,0,0,0,0,0,57,57,57,0,57,0,57,57,57,57,57,57,57,57,57,57,0,57,57,57,57,57,
0,0,0,0,0,0,0,0,0,0,0,0,0,0,0,0,0,0,0,0,0,0,0,57,57,57,0,0,0,0,57,0,57,0,0,0,0,0,0,0,0,0,0,0,0,0,0,0,0,0,
0,0,0,0,0,0,0,0,0,0,0,0,0,0,0,0,0,0,0,0,0,0,0,57,0,0,57,0,57,57,57,0,57,57,57,57,0,0,0,0,0,0,0,0,0,0,0,0,0,0,
0,0,0,0,0,0,0,0,0,0,0,0,0,0,0,0,0,0,0,0,0,0,0,57,57,0,0,0,0,0,0,0,0,0,0,57,0,0,0,0,0,0,0,0,0,0,0,0,0,0,
0,0,0,0,0,0,0,0,0,0,0,0,0,0,0,0,0,0,0,0,0,0,0,0,0,57,57,57,57,57,57,57,57,57,57,57,0,0,0,0,0,0,0,0,0,0,0,0,0,0,
0,0,0,0,0,0,0,0,0,0,0,0,0,0,0,0,0,0,0,0,0,0,0,0,0,0,0,0,0,0,0,0,0,0,0,0,0,0,0,0,0,0,0,0,0,0,0,0,0,0,
0,0,0,0,0,0,0,0,0,0,0,0,0,0,0,0,0,0,0,0,0,0,0,0,0,0,0,0,0,0,0,0,0,0,0,0,0,0,0,0,0,0,0,0,0,0,0,0,0,0,
0,0,0,0,0,0,0,0,0,0,0,0,0,0,0,0,0,0,0,0,0,0,0,0,0,0,0,0,0,0,0,0,0,0,0,0,0,0,0,0,0,0,0,0,0,0,0,0,0,0,
0,0,0,0,0,0,0,0,0,0,0,0,0,0,0,0,0,0,0,0,0,0,0,0,0,0,0,0,0,0,0,0,0,0,0,0,0,0,0,0,0,0,0,0,0,0,0,0,0,0,
0,0,0,0,0,0,0,0,0,0,0,0,0,0,0,0,0,0,0,0,0,0,0,0,0,0,0,0,0,0,0,0,0,0,0,0,0,0,0,0,0,0,0,0,0,0,0,0,0,0
</data>
 </layer>
 <layer id="1" name="Tile Layer 1" width="50" height="50">
  <data encoding="csv">
281,282,282,282,282,282,282,282,282,282,282,282,282,282,804,804,804,282,282,282,282,282,282,282,282,282,282,282,282,282,282,282,282,282,282,282,282,282,282,282,282,282,282,282,282,282,282,282,1390,1390,
337,114,114,114,114,114,114,114,114,114,114,114,338,114,114,244,244,114,114,114,114,114,114,114,114,114,114,114,114,114,114,114,114,114,114,114,114,114,114,114,114,114,114,114,114,114,114,1390,1390,339,
337,114,114,114,114,114,338,114,114,114,114,114,114,114,114,244,244,114,114,114,114,114,114,338,114,114,114,114,114,114,114,114,114,114,114,114,114,114,114,114,114,114,114,114,338,1390,1390,1390,114,339,
337,114,114,114,114,114,114,114,114,114,114,114,114,114,114,244,244,1390,1390,1390,1390,114,114,114,114,114,114,114,338,114,114,114,114,114,114,114,114,114,114,114,114,114,114,114,1390,1390,114,114,114,339,
337,114,338,114,114,114,114,114,338,114,114,114,114,114,114,244,244,114,114,114,1390,1390,1390,114,114,114,114,114,114,114,114,114,338,114,114,114,114,114,114,114,114,114,114,1390,1390,114,114,114,114,339,
337,114,114,114,114,114,114,114,114,114,114,338,114,114,114,746,746,114,114,114,114,114,1390,1390,114,114,114,114,114,114,114,114,114,114,114,114,114,338,114,114,114,1390,1390,1390,114,114,114,114,114,339,
337,114,114,114,114,338,114,114,114,114,114,114,114,114,114,801,804,114,114,114,114,114,114,1390,1390,1390,114,114,114,114,114,114,114,114,114,114,114,114,114,114,1390,1390,114,114,114,114,114,114,114,339,
337,114,114,114,114,114,114,114,114,114,114,114,114,114,114,244,244,114,114,114,114,114,114,114,114,1390,1390,114,114,114,114,114,114,114,114,114,114,114,1390,1390,1390,114,114,114,338,114,114,114,114,339,
337,114,114,338,114,114,114,338,114,114,114,338,114,114,114,244,244,114,114,114,114,114,114,114,114,114,1390,1390,114,114,114,114,338,114,114,114,114,1390,1390,114,114,114,114,114,114,114,114,114,114,339,
337,114,114,114,114,114,114,114,114,114,114,114,114,114,114,114,244,114,114,114,114,114,114,114,114,114,1390,1390,1390,114,114,114,114,114,114,114,1390,1390,114,114,114,114,114,114,114,114,114,114,114,339,
337,114,338,114,114,114,114,114,338,114,114,114,338,114,114,114,244,244,114,114,114,114,114,1390,1390,1390,1390,114,1390,1390,1390,114,114,114,114,1390,1390,114,114,114,114,114,114,114,114,114,114,114,114,339,
337,114,114,114,114,338,338,114,114,114,114,338,114,114,114,114,244,244,114,114,114,1390,1390,1390,114,114,114,114,114,114,1390,1390,114,114,114,1390,114,114,114,114,114,114,114,114,114,114,338,114,114,339,
337,114,114,114,114,114,114,338,338,114,114,114,114,338,114,114,244,244,114,114,1390,1390,114,114,114,114,114,114,114,114,114,1390,1390,114,338,1390,114,114,114,338,114,114,114,114,114,114,114,114,114,339,
337,114,114,114,114,114,114,114,114,114,114,114,114,114,114,114,244,244,114,1390,1390,114,114,114,114,114,114,114,114,114,114,114,1390,1390,1390,1390,114,114,114,114,114,114,114,114,114,114,114,114,114,339,
337,114,114,338,114,114,338,114,114,114,338,114,114,114,114,114,114,244,1390,1390,114,114,114,114,114,114,114,114,114,114,114,114,114,338,114,1390,1390,114,114,114,114,114,114,114,114,114,114,114,114,339,
337,114,114,114,114,114,114,114,114,114,114,338,114,114,114,114,114,244,244,114,114,114,114,114,114,114,114,114,114,114,114,114,114,114,114,114,1390,1390,114,114,114,114,114,114,114,114,114,114,114,339,
337,114,114,114,114,114,114,114,114,114,114,114,114,114,338,114,114,244,244,244,114,114,114,114,114,114,338,114,114,114,114,114,114,114,114,114,114,1390,1390,1390,114,114,114,114,114,114,114,114,114,339,
337,114,114,114,114,114,114,114,114,114,114,114,114,114,114,114,114,114,244,244,114,114,114,114,114,114,114,114,114,114,114,114,114,114,114,114,114,114,114,1390,1390,1390,1390,1390,114,338,114,114,114,339,
337,114,114,114,338,114,114,114,114,338,114,114,114,114,114,114,114,114,244,244,114,114,114,114,114,338,114,114,114,114,114,114,114,338,114,114,114,114,114,114,114,114,114,1390,114,114,114,338,114,339,
337,114,114,114,114,114,114,114,114,114,114,114,114,114,114,114,114,114,244,244,244,114,114,114,114,114,114,114,114,114,114,114,114,114,114,114,114,114,114,114,114,114,114,1390,114,114,114,114,114,339,
114,114,114,114,114,114,114,114,114,114,114,338,114,114,114,114,114,114,114,244,244,114,114,114,114,114,114,114,114,114,114,114,114,114,114,114,114,114,114,114,114,114,114,1390,114,114,114,114,114,339,
114,114,114,114,114,114,114,114,338,114,114,114,114,114,114,114,114,114,114,746,746,114,114,114,114,338,114,114,114,114,114,114,114,114,114,114,114,114,114,114,114,114,114,1390,114,114,114,114,114,339,
114,114,114,114,114,114,114,114,114,114,114,114,114,114,114,114,114,338,114,802,802,114,114,114,114,114,114,114,114,338,114,114,114,114,114,114,114,114,114,114,114,114,114,1390,114,114,114,114,114,339,
114,114,114,114,114,338,114,114,114,114,338,114,114,114,114,338,114,114,114,244,244,244,114,114,114,114,114,114,114,114,114,114,114,114,114,114,114,338,114,114,114,114,114,1390,114,114,114,114,114,339,
114,114,114,114,114,114,114,114,114,114,114,114,114,114,114,114,114,114,114,114,244,244,114,114,114,114,114,114,114,114,114,114,114,338,114,114,114,114,114,114,114,114,114,1390,114,114,114,114,114,339,
114,114,338,114,114,114,114,114,114,114,114,114,114,114,114,114,114,114,114,114,747,747,114,114,338,114,114,338,114,114,114,114,114,114,114,114,114,114,114,114,114,114,1390,1390,338,114,114,114,114,339,
114,114,114,114,114,114,114,114,114,114,338,114,114,114,114,338,114,114,114,114,803,803,114,114,114,114,114,114,114,114,114,114,114,114,114,114,114,114,114,114,114,114,1390,114,114,114,114,114,114,339,
114,114,114,114,114,114,114,338,114,114,114,114,114,114,114,114,114,114,114,114,244,244,114,114,114,114,114,114,114,114,114,114,114,114,338,114,114,114,114,114,114,114,1390,114,114,114,114,114,114,339,
114,114,114,114,114,114,114,114,114,114,114,114,114,114,114,114,114,114,114,114,244,244,114,114,114,114,114,114,114,114,114,114,114,114,114,114,114,114,114,114,1390,1390,1390,114,338,114,114,114,114,339,
114,114,114,114,114,114,114,114,114,114,114,114,338,114,114,114,114,114,114,114,244,244,114,114,114,114,114,114,338,114,114,114,114,114,114,114,114,114,1390,1390,1390,114,114,114,114,114,114,114,114,339,
114,114,114,114,338,114,114,338,114,114,114,114,114,114,114,114,114,114,114,114,244,244,114,114,114,114,114,114,114,114,114,114,114,114,114,338,1390,1390,1390,114,114,114,338,114,114,114,114,114,114,339,
114,114,114,114,114,114,114,114,114,114,114,114,114,114,114,114,114,114,114,114,244,244,114,114,114,114,114,114,114,114,114,114,114,114,1390,1390,1390,114,114,114,114,114,114,114,114,114,114,114,114,339,
114,114,114,114,114,114,114,114,114,114,114,114,114,114,114,114,114,114,114,114,244,244,1390,1390,1390,1390,1390,1390,1390,1390,114,114,114,1390,1390,114,114,338,114,114,114,114,114,114,114,114,114,114,338,339,
114,114,114,114,114,338,114,114,114,114,114,338,114,114,114,338,114,114,114,114,244,244,114,114,114,114,114,114,114,1390,1390,1390,1390,1390,114,114,114,114,114,114,114,114,114,114,114,114,114,114,114,339,
114,114,114,338,114,114,114,114,338,114,114,114,114,114,114,114,114,2074,2075,2076,244,244,2073,114,114,114,114,114,114,114,114,1390,114,114,114,114,114,114,114,114,114,114,114,114,114,114,114,114,114,339,
114,114,114,114,114,114,114,114,114,114,114,114,114,114,114,2075,2028,244,244,244,244,244,244,2073,114,114,114,114,114,114,114,1390,114,114,114,114,114,114,114,114,114,114,114,114,114,114,114,114,114,339,
114,114,114,114,114,338,114,114,114,114,2076,2073,2074,2074,2076,244,244,244,244,244,244,244,244,244,2073,114,114,114,114,114,114,1390,114,114,114,338,338,114,114,114,114,114,114,114,114,114,114,114,114,339,
2073,2075,2075,2075,2075,2075,114,338,114,2076,244,244,244,244,244,244,244,244,244,244,244,244,244,244,2073,2074,1833,1498,1498,1498,114,1390,114,114,114,114,114,114,114,114,114,114,114,114,114,114,338,114,114,339,
244,244,244,244,114,2026,114,114,114,244,244,244,244,244,244,244,244,244,244,244,244,244,244,244,244,244,1641,1690,1498,1498,1498,1498,114,114,114,114,114,114,114,114,114,114,114,2073,2076,114,114,114,114,339,
244,244,244,244,2073,338,114,2074,2076,244,244,244,244,244,244,244,244,244,244,244,244,244,244,244,244,244,244,244,244,1498,1498,1498,1498,1498,1498,114,114,114,114,114,114,114,2076,244,244,2073,114,114,114,339,
244,244,244,244,244,2073,2076,244,244,244,244,244,244,244,244,244,244,244,244,244,244,244,244,244,244,244,244,244,244,244,244,1690,1498,1498,1498,1498,1884,2074,2074,2075,2075,2076,244,244,244,244,2073,2074,2074,2076,
244,244,244,244,244,244,244,244,244,244,244,244,244,244,244,244,244,244,244,244,244,244,244,244,244,244,244,244,244,244,244,1641,1690,1498,1498,1689,1643,244,244,244,244,244,244,244,244,244,244,244,244,244,
244,244,244,244,244,244,244,244,244,244,244,244,244,244,244,244,244,244,244,244,244,244,244,244,244,244,244,244,244,244,244,244,1641,1642,1642,1643,244,244,244,244,244,244,244,244,244,244,244,244,244,244,
244,244,244,244,244,244,244,244,244,244,244,244,244,244,244,244,244,244,244,244,244,244,244,244,244,244,244,244,244,244,244,244,244,244,244,244,244,244,244,244,244,244,244,244,244,244,244,244,244,244,
244,244,244,244,244,244,73,73,73,73,73,73,244,244,244,244,244,244,244,244,244,244,244,244,244,244,244,244,244,244,244,244,244,244,244,244,244,244,244,244,244,244,244,244,244,244,244,244,244,244,
244,244,244,244,244,244,73,73,73,73,73,73,244,244,244,244,244,244,244,244,244,244,244,244,244,244,244,244,244,244,244,244,244,244,244,244,244,244,244,244,244,244,244,244,244,244,244,244,244,244,
244,244,244,244,244,244,73,73,73,73,73,73,244,244,244,244,244,244,244,244,244,244,244,244,244,244,244,244,244,244,244,244,244,244,244,244,244,244,244,244,244,244,244,244,244,244,244,244,244,244,
244,244,244,244,244,244,73,73,73,73,73,73,244,244,244,244,244,244,244,244,244,244,244,244,244,244,244,244,244,244,244,244,244,244,244,244,244,244,244,244,244,244,244,244,244,244,244,244,244,244,
244,244,244,244,244,244,244,244,244,244,244,244,244,244,244,244,244,244,244,244,244,244,244,244,244,244,244,244,244,244,244,244,244,244,244,244,244,244,244,244,244,244,244,244,244,244,244,244,244,244,
244,244,244,244,244,244,244,244,244,244,244,244,244,244,244,244,244,244,244,244,244,244,244,244,244,244,244,244,244,244,244,244,244,244,244,244,244,244,244,244,244,244,244,244,244,244,244,244,244,244
</data>
 </layer>
 <layer id="2" name="Tile Layer 2" width="50" height="50">
  <data encoding="csv">
794,795,737,738,739,740,737,793,794,795,796,688,0,282,2016,0,2014,0,0,0,0,0,0,1077,1078,0,0,0,0,0,0,0,464,0,0,0,0,0,0,0,0,0,0,1077,1078,0,0,0,0,1919,
850,851,793,737,738,739,740,849,850,851,852,688,1073,1074,0,401,678,0,0,0,0,0,0,1133,1134,0,0,0,0,0,0,0,464,0,0,0,0,0,0,0,0,1286,0,1133,1134,0,0,0,2015,0,
0,0,849,793,794,795,796,905,906,907,908,688,1129,1130,1017,1821,678,0,0,0,0,0,0,1189,1190,0,0,0,0,0,0,0,464,0,0,0,0,0,0,0,0,0,0,1189,1190,0,1917,2111,0,0,
738,739,740,849,850,851,852,906,907,908,688,0,1185,1186,0,1821,678,0,677,902,0,0,0,0,0,0,0,0,0,0,0,0,464,165,0,0,0,0,0,0,0,0,0,0,0,2015,0,0,0,0,
794,795,796,0,849,850,851,852,1073,1074,0,687,686,0,687,1821,789,0,0,0,960,902,0,0,0,0,0,0,0,0,0,0,464,0,0,0,0,0,0,0,0,0,0,0,2015,0,0,0,0,0,
850,851,852,0,905,906,907,908,1129,1130,1073,1074,686,687,0,1821,1184,0,0,0,0,0,848,0,0,0,0,0,0,1077,1078,0,464,0,0,0,0,0,0,0,0,0,733,2111,1232,0,0,0,0,168,
0,0,0,0,0,0,221,222,1185,1186,1129,1130,687,686,687,2061,1184,1077,1078,0,0,0,0,960,902,1015,0,0,0,1133,1134,0,464,0,0,0,0,0,0,1156,0,2015,0,0,0,0,0,0,0,0,
0,0,0,0,0,1073,277,278,0,0,1185,1186,0,686,0,1918,846,1133,1134,0,0,0,0,0,0,0,0,0,0,1189,1190,0,464,0,0,0,0,0,0,1917,2111,0,0,0,0,0,0,0,0,0,
0,0,0,0,0,1129,1130,0,1135,1136,0,1077,1078,0,0,2110,678,1189,1190,0,0,0,0,0,0,0,734,0,0,0,0,0,464,408,0,0,90,0,2109,0,0,0,0,0,0,0,0,0,0,0,
1020,0,0,0,0,2375,1186,0,1191,1192,0,1133,1134,0,0,0,1918,0,0,0,0,0,0,0,0,0,901,1240,0,0,0,0,265,464,0,408,428,464,408,464,408,464,464,408,464,464,408,464,464,464,
0,0,0,0,632,0,0,686,0,0,686,686,1190,0,0,0,1821,402,0,0,0,0,0,0,733,677,959,0,0,2062,0,0,321,265,0,0,426,266,211,266,266,266,211,266,266,266,266,156,266,267,
0,1019,0,0,0,0,0,0,0,0,0,0,0,0,0,0,1821,846,0,0,0,0,733,959,0,0,0,0,0,0,0,0,0,321,322,2014,322,322,322,322,322,322,322,322,322,322,322,322,322,323,
0,0,0,0,1077,1078,0,0,1080,0,1135,1136,0,0,0,0,1821,789,0,0,0,847,0,0,0,0,686,0,0,0,0,0,0,0,0,1870,0,0,0,0,0,0,0,0,0,0,0,0,0,0,
0,0,1020,0,1133,1134,0,0,0,0,1191,1192,0,1080,0,0,2110,846,0,0,847,0,0,0,0,0,0,686,0,0,0,0,0,2013,1966,1965,0,0,0,0,0,0,0,0,0,0,0,0,0,0,
0,0,0,0,1189,1190,0,632,0,0,0,0,0,0,0,0,0,1918,679,959,0,0,0,0,0,0,0,0,0,0,0,0,0,0,0,0,2063,0,0,0,0,0,0,0,0,0,0,0,0,0,
632,686,0,632,686,0,0,686,0,632,0,0,0,0,0,0,0,1821,0,0,1077,1078,0,686,0,0,0,0,0,0,1077,1078,0,0,0,0,0,2063,0,0,0,0,0,0,0,0,0,0,0,0,
1077,1078,0,0,0,0,0,0,0,686,0,0,0,0,0,0,0,2110,0,402,1133,1134,0,0,686,0,0,0,0,0,1133,1134,0,0,0,0,0,0,2013,2159,0,0,0,0,0,0,0,0,0,0,
1133,1134,1077,1078,0,0,0,686,0,0,632,0,686,0,687,687,0,0,1918,789,1189,1190,0,0,0,0,0,0,0,686,1189,1190,0,0,0,0,0,0,0,0,2013,1774,1966,2157,0,0,0,0,0,0,
1189,1190,1133,1134,0,0,0,0,0,0,0,0,630,630,632,687,0,0,1821,1184,0,0,0,0,0,0,0,0,0,687,0,0,0,0,0,0,0,0,0,0,0,0,0,1870,0,0,0,0,0,0,
744,1077,1189,1190,0,0,0,0,0,0,0,1080,0,0,630,687,687,0,402,0,1013,0,0,686,0,0,0,0,687,0,0,0,687,0,0,0,0,0,1135,1136,0,0,0,1680,0,0,1077,1078,0,0,
797,1133,1134,744,0,0,0,0,0,0,0,0,0,1017,1080,0,0,0,0,1918,678,0,0,0,0,0,0,0,0,0,0,0,0,0,0,0,0,0,1191,1192,0,0,0,1680,0,0,1133,1134,0,0,
798,1189,1190,800,0,0,0,0,1017,0,0,0,0,0,0,0,0,0,0,1821,678,0,0,0,0,0,0,0,0,0,0,0,0,0,0,0,0,0,0,0,0,0,0,1680,0,0,1189,1190,0,0,
742,799,744,856,0,1023,0,0,0,0,0,1018,0,0,0,0,0,0,0,1821,789,0,1077,1078,686,0,0,741,742,743,744,0,0,0,0,0,0,0,0,0,0,0,0,1680,0,0,0,0,0,0,
799,799,911,912,0,0,0,0,0,0,0,0,0,0,0,0,687,0,0,2110,0,903,1133,1134,0,0,0,797,798,799,800,0,0,991,992,0,0,0,0,1022,0,0,0,1680,0,0,0,0,0,0,
798,799,800,744,0,0,0,0,0,632,0,0,0,0,0,0,0,0,0,0,1918,846,1189,1190,0,0,0,853,854,855,856,0,0,1047,1048,0,1080,0,0,1035,0,0,0,1870,0,0,0,0,0,0,
797,798,799,800,744,1023,0,0,687,0,0,0,632,0,0,0,0,0,0,0,1821,789,0,0,0,686,0,909,910,911,912,0,0,817,984,0,0,0,0,0,0,0,0,2109,0,0,0,0,0,0,
0,797,798,799,800,744,0,0,0,0,0,0,0,0,0,0,0,0,0,0,1821,1184,0,0,0,1021,0,0,0,0,0,1021,1176,1214,888,888,888,888,888,888,888,888,2014,0,0,0,0,0,0,0,
741,742,797,798,799,800,744,0,0,0,0,0,0,687,0,0,0,1079,0,0,1821,1184,0,0,686,0,0,0,0,1079,0,1077,1078,0,0,0,0,0,0,0,0,0,678,0,0,1077,1078,0,0,0,
797,741,742,743,744,799,800,0,0,0,1080,0,0,0,0,631,0,0,0,0,1821,401,0,0,0,0,0,686,0,0,0,1133,1134,0,0,0,1079,0,0,0,0,2352,957,0,0,1133,1134,0,0,0,
797,797,798,799,800,800,856,0,0,0,0,0,0,0,0,631,632,0,0,0,1821,678,0,0,0,686,0,0,0,1021,0,1189,1190,0,1079,0,0,0,0,2352,2015,0,0,0,0,1189,1190,0,0,0,
798,799,800,798,799,911,912,0,0,0,0,0,0,0,632,632,631,0,0,2319,1821,678,0,0,0,0,0,0,0,0,0,0,0,0,0,0,0,1917,2111,0,0,0,0,0,0,0,0,0,0,0,
798,799,800,798,799,800,0,0,0,0,0,0,0,0,0,0,0,0,0,2367,1821,678,2269,0,0,0,0,0,0,0,0,0,0,0,0,1917,2111,0,0,0,0,0,0,0,0,0,0,0,0,0,
797,798,853,854,855,856,0,0,1023,0,0,0,0,0,0,0,0,0,0,0,1821,1870,1693,1774,1774,1774,1774,1774,2062,0,0,0,0,0,2109,0,0,1077,1078,0,0,0,0,0,0,0,0,0,0,0,
853,854,909,910,911,912,0,0,0,0,0,0,0,0,0,0,0,0,0,0,1978,1979,0,0,1077,1078,0,0,0,2110,2352,0,1917,2111,0,0,0,1133,1134,0,0,0,0,0,1077,1078,0,0,0,0,
909,910,911,912,0,0,1024,0,0,0,0,0,0,0,1080,0,0,2160,1822,1966,0,0,903,0,1133,1134,0,0,0,0,0,1918,0,0,0,0,0,1189,1190,0,0,0,0,0,1133,1134,0,0,0,0,
0,0,0,0,0,0,0,0,0,0,0,0,0,0,0,2160,1966,0,0,0,0,0,0,903,1189,1190,0,0,0,0,0,1680,0,0,0,0,0,0,0,0,0,0,0,0,1189,1190,0,0,0,0,
0,0,0,0,0,0,0,0,0,0,401,845,1822,1822,1966,0,0,0,0,0,0,0,0,0,735,0,0,0,0,0,0,1680,0,0,0,0,0,0,0,0,0,0,0,0,0,0,0,0,0,0,
1016,622,622,622,733,567,0,0,0,1014,0,0,0,0,0,0,0,0,0,0,0,0,0,0,903,1016,790,845,622,1015,0,0,0,0,0,0,0,0,0,1077,1078,0,0,0,0,0,0,0,0,0,
0,401,0,1184,0,402,0,0,0,901,0,0,0,0,0,0,0,0,0,0,0,0,0,0,0,0,0,1690,0,0,845,2159,0,0,0,0,0,0,0,1133,1134,0,0,402,1015,0,0,0,0,0,
0,0,0,0,903,0,0,402,904,0,0,0,0,0,0,0,0,0,0,0,0,0,0,0,0,0,0,1641,1690,0,0,0,845,790,903,0,0,0,0,1189,1190,0,904,0,0,903,0,0,0,0,
0,0,0,0,0,845,790,0,0,0,0,0,0,0,0,0,0,0,0,0,0,0,0,0,0,0,0,0,1641,1642,1642,0,0,0,0,845,790,1183,845,622,622,790,0,0,0,0,845,622,622,790,
0,0,0,0,0,0,0,0,0,0,0,0,0,0,0,0,0,0,0,0,0,0,0,0,0,1473,1474,1475,1428,0,0,0,0,0,0,0,0,0,0,0,0,0,0,0,0,0,0,0,0,0,
0,0,0,0,0,0,0,0,0,0,0,0,0,0,0,0,0,0,0,0,0,0,0,1501,1502,1599,1522,1523,1524,0,0,0,0,0,0,0,0,0,0,0,0,0,0,0,0,0,0,0,0,0,
0,0,0,0,0,0,0,0,0,0,0,0,0,0,0,0,0,0,0,0,0,0,0,1934,1934,1647,1502,1550,1502,1502,1502,1454,1502,1502,1503,0,0,0,0,0,0,0,0,0,0,0,0,0,0,0,
0,0,0,0,0,0,0,0,0,0,0,0,0,0,0,0,0,0,0,0,0,0,0,1551,1551,1551,1551,1551,1551,1551,1551,1551,1551,1551,1551,0,0,0,0,0,0,0,0,0,0,0,0,0,0,0,
0,0,0,0,0,0,0,0,0,0,0,0,0,0,0,0,0,0,0,0,0,0,0,0,0,0,0,0,0,0,0,0,0,0,0,0,0,0,0,0,0,0,0,0,0,0,0,0,0,0,
0,0,0,0,0,0,0,0,0,0,0,0,0,0,0,0,0,0,0,0,0,0,0,0,0,0,0,0,0,0,0,0,0,0,0,0,0,0,0,0,0,0,0,0,0,0,0,0,0,0,
0,0,0,0,0,0,0,0,0,0,0,0,0,0,0,0,0,0,0,0,0,0,0,0,0,0,0,0,0,0,0,0,0,0,0,0,0,0,0,0,0,0,0,0,0,0,0,0,0,0,
0,0,0,0,0,0,0,0,0,0,0,0,0,0,0,0,0,0,0,0,0,0,0,0,0,0,0,0,0,0,0,0,0,0,0,0,0,0,0,0,0,0,0,0,0,0,0,0,0,0,
0,0,0,0,0,0,0,0,0,0,0,0,0,0,0,0,0,0,0,0,0,0,0,0,0,0,0,0,0,0,0,0,0,0,0,0,0,0,0,0,0,0,0,0,0,0,0,0,0,0
</data>
 </layer>
 <layer id="3" name="Tile Layer 3" width="50" height="50">
  <data encoding="csv">
793,794,795,796,0,0,737,738,739,740,796,0,0,0,0,0,0,0,0,0,0,0,0,0,0,0,0,0,0,1073,1074,0,660,0,0,0,0,0,0,0,0,0,0,0,0,0,0,0,2160,1824,
849,850,851,851,851,0,793,794,795,796,852,0,0,0,0,734,0,0,0,0,687,0,0,0,0,0,0,0,0,1129,1130,0,716,0,0,325,326,325,326,0,0,0,0,0,0,0,0,2064,0,0,
0,0,0,851,851,0,849,850,851,852,908,0,0,0,1144,0,0,0,0,0,0,0,0,0,0,0,687,0,0,1185,1186,0,716,0,0,381,382,381,382,0,495,496,0,0,0,2160,1966,0,0,0,
0,0,851,851,0,0,905,906,907,908,0,0,0,0,0,0,0,565,622,622,1015,0,0,0,0,0,0,0,0,0,0,0,716,280,0,493,494,493,494,0,551,552,0,0,2064,0,0,0,503,504,
851,851,851,851,851,740,0,0,0,2278,0,0,0,0,0,303,303,0,0,687,0,845,1015,0,0,632,0,0,0,0,0,0,464,0,0,549,550,549,550,0,0,0,0,2064,0,501,502,0,559,560,
793,794,795,851,851,796,0,0,0,0,0,0,0,0,0,0,0,0,0,0,0,0,0,903,0,0,0,687,0,0,0,0,716,0,0,605,606,605,606,0,0,2160,790,0,0,557,558,0,0,279,
849,850,851,852,851,852,0,0,0,0,0,0,0,0,0,0,0,0,0,0,0,0,0,0,845,1015,0,0,0,0,0,0,716,0,0,0,0,0,0,1212,2064,0,0,0,0,605,606,0,0,0,
0,0,905,906,907,908,1074,0,1036,0,0,0,0,0,0,0,0,0,0,0,687,0,687,0,0,2016,2063,0,0,0,0,0,716,0,0,0,0,0,2160,1966,0,0,0,0,0,0,0,0,0,0,
0,0,0,0,0,0,0,0,0,0,0,1077,0,0,0,0,0,0,0,0,0,0,0,0,0,0,0,2063,0,0,0,0,769,659,89,0,0,2064,0,0,0,0,0,0,0,0,0,0,0,0,
0,0,1075,1076,2277,2305,0,0,0,0,0,0,0,0,0,0,0,0,0,0,687,0,0,632,0,0,0,0,2063,0,0,0,1214,769,426,826,0,826,826,826,826,826,826,826,826,826,826,826,826,464,
0,0,1131,1132,0,0,0,0,0,0,0,1189,0,0,0,0,0,903,0,0,0,0,0,1016,622,790,0,0,2112,2013,2159,0,1269,1214,427,2158,0,1214,0,1214,0,1214,0,1214,0,0,1214,0,0,1214,
0,0,1187,1188,0,0,0,0,0,0,0,0,0,0,0,0,0,0,0,0,0,1016,790,0,0,0,0,0,0,0,2016,2063,0,1269,481,1821,481,1270,1270,1270,1270,1270,1270,1270,1270,1270,1270,1270,1270,1271,
0,0,0,0,0,0,0,0,0,0,0,0,0,0,0,0,0,0,0,0,904,0,0,0,0,0,0,0,0,0,0,2016,2063,0,0,2061,0,0,0,0,0,0,0,0,0,0,0,0,1073,1074,
0,0,0,0,0,0,0,0,0,0,0,0,0,0,0,2375,2271,0,0,904,0,0,0,0,0,741,742,743,744,0,0,0,2112,1869,2062,0,0,0,687,0,0,0,0,0,1073,1074,0,0,1129,1130,
0,0,0,0,0,0,0,0,0,0,0,0,0,0,0,0,0,789,1183,0,0,0,0,0,0,797,798,799,800,0,0,0,0,0,0,2016,0,0,0,0,687,0,0,0,1129,1130,0,0,1185,1186,
0,0,0,0,0,0,1077,1078,0,0,0,1075,1076,0,0,0,0,0,903,0,0,0,0,0,0,853,854,855,856,0,0,0,0,0,0,0,2016,0,0,0,0,632,0,0,1185,1186,0,0,0,0,
0,0,0,0,0,0,1133,1134,0,0,0,1131,1132,0,0,0,0,0,0,1013,0,0,0,0,0,909,910,911,912,0,0,0,0,0,0,0,0,2112,2062,0,0,0,0,0,0,0,0,1073,1074,0,
0,0,0,0,0,0,1189,1190,0,0,0,1187,1188,0,0,0,0,0,0,0,0,0,0,0,0,0,0,0,0,0,0,0,0,0,632,0,0,0,0,2112,1869,0,2062,0,687,0,0,1129,1130,0,
0,0,0,0,1077,1078,0,0,0,0,0,0,0,0,0,0,0,0,0,0,0,0,0,0,0,0,0,0,0,0,0,0,0,0,0,0,0,0,0,0,0,0,0,1918,0,0,0,1185,1186,0,
0,1077,1078,0,1133,1134,0,0,0,0,0,0,0,0,0,0,0,0,958,0,0,0,0,0,0,0,0,0,0,0,0,0,0,0,0,0,0,0,0,0,0,0,0,0,0,0,0,0,0,0,
800,742,743,0,1189,1190,0,0,0,0,0,0,0,0,0,0,0,0,0,2351,0,0,0,0,0,0,0,0,0,0,0,0,0,0,0,0,0,0,0,0,632,0,0,0,0,0,0,0,0,0,
742,800,797,0,0,0,0,0,0,0,0,0,0,0,0,0,0,0,0,0,0,0,0,0,0,0,0,0,0,0,0,631,0,0,0,0,0,0,0,0,0,0,0,0,0,0,0,0,0,0,
797,798,797,0,0,0,0,0,0,0,0,0,0,0,0,1135,1136,0,0,0,0,0,0,0,0,0,0,0,0,0,0,0,0,630,0,631,0,0,632,0,0,0,0,0,0,632,0,0,687,0,
0,0,800,0,0,0,0,0,0,0,0,0,0,0,0,1191,1192,0,0,0,0,0,0,0,0,0,741,742,743,744,0,0,0,263,486,0,0,0,0,0,0,0,0,0,0,0,0,0,0,0,
741,742,743,744,0,0,0,1135,1136,0,0,0,0,0,0,0,0,0,0,0,0,0,0,0,0,0,797,798,799,800,0,630,0,261,262,0,0,0,0,0,0,0,0,2061,0,0,0,0,0,0,
742,741,742,743,744,0,0,1191,1192,0,0,0,1080,0,0,0,0,0,0,0,0,0,0,0,0,0,853,854,855,856,0,630,0,0,1117,632,632,687,630,0,0,0,904,0,0,687,0,687,687,0,
799,742,798,799,743,744,0,0,0,0,0,0,0,0,0,0,0,0,0,0,0,0,0,0,0,0,909,910,911,912,0,0,0,0,960,845,566,566,566,566,566,902,0,0,0,0,0,0,0,0,
798,799,800,0,799,743,744,0,0,0,0,0,0,687,0,0,0,0,0,0,0,0,0,0,0,0,0,0,0,0,0,0,0,0,0,687,687,687,688,0,0,0,1239,0,0,0,0,0,0,0,
799,798,798,798,798,799,800,0,0,0,0,0,0,0,0,0,0,0,0,0,2351,846,0,0,0,0,0,0,0,0,0,0,0,0,0,0,0,0,0,0,2064,2303,0,0,0,0,0,0,687,0,
799,798,0,0,799,799,0,0,0,0,0,0,1135,1136,0,0,0,0,0,0,0,0,0,0,0,0,0,0,0,0,0,0,0,0,0,0,0,0,2160,1966,0,0,0,0,0,0,0,0,0,0,
741,742,743,744,0,800,0,0,0,0,0,0,1191,1192,0,0,0,0,0,0,0,0,0,0,0,0,0,0,0,0,0,0,0,0,0,0,2064,2303,0,0,0,0,0,0,0,0,0,632,0,0,
797,798,799,800,0,0,0,0,0,0,0,0,0,0,0,0,0,0,0,0,0,0,0,0,0,0,0,0,0,0,0,0,0,0,2160,1966,0,0,0,0,687,0,0,0,0,0,0,0,0,0,
798,741,742,743,744,0,0,0,0,0,0,0,0,0,0,0,0,1022,0,0,0,0,1774,0,0,0,0,0,1822,1015,0,0,0,2064,0,0,0,0,0,0,0,632,0,687,0,0,0,0,0,0,
854,797,798,799,800,0,0,0,0,0,0,0,0,0,0,0,0,0,0,0,2061,1965,0,0,0,0,0,0,0,848,2013,1966,2303,0,0,0,0,0,0,0,0,0,0,0,0,0,0,687,0,0,
910,853,854,855,856,0,0,0,0,1021,0,0,0,0,0,0,0,0,0,0,0,0,0,0,0,0,0,0,0,0,0,2014,0,0,0,632,0,0,0,0,0,687,0,0,0,0,0,0,0,0,
0,909,910,911,912,0,0,0,0,0,0,0,0,0,0,0,0,0,0,0,0,0,0,0,0,0,0,0,0,0,0,0,0,0,0,0,0,0,0,0,0,0,0,0,0,0,0,0,0,0,
0,0,0,0,0,0,0,0,0,0,904,0,0,0,0,0,0,0,0,0,0,0,0,0,0,0,0,0,0,0,0,0,0,0,0,0,0,0,0,0,0,632,0,0,0,0,0,687,0,0,
0,0,0,0,622,0,0,0,0,0,0,0,0,0,0,0,0,0,0,0,0,0,0,0,0,0,0,0,0,0,0,1680,0,0,0,0,687,0,0,0,0,0,0,0,0,0,0,0,0,0,
0,0,0,0,0,568,0,0,0,0,0,0,0,0,0,0,0,0,0,0,0,0,0,0,0,0,0,0,0,0,0,1408,0,0,0,0,0,0,0,0,0,0,0,1016,0,0,0,0,632,0,
0,0,0,0,0,0,0,791,0,0,0,0,0,0,0,0,0,0,0,0,0,0,0,0,0,0,0,0,0,0,0,1408,0,0,0,0,0,0,0,0,0,0,0,0,0,0,0,0,0,0,
0,0,0,0,0,0,0,0,0,0,0,0,0,0,0,0,0,0,0,0,0,0,0,0,0,0,0,1378,1380,0,0,1408,0,0,0,0,0,0,0,0,0,0,0,0,0,0,0,0,0,0,
0,0,0,0,0,0,0,0,0,0,0,0,0,0,0,0,0,0,0,0,0,0,0,0,0,0,0,1426,0,0,0,1408,0,0,0,0,0,0,0,0,0,0,0,0,0,0,0,0,0,0,
0,0,0,0,0,0,1545,1546,1546,1546,1546,1547,0,0,0,0,0,0,0,0,0,0,0,2327,0,0,0,1549,0,0,0,1408,0,0,0,0,0,0,0,0,0,0,0,0,0,0,0,0,0,0,
0,0,0,0,0,0,1641,1690,1498,1498,1498,1691,1546,1546,1547,0,0,0,0,0,0,0,0,0,0,0,0,1454,0,0,0,0,0,0,0,0,0,0,0,0,0,0,0,0,0,0,0,0,0,0,
0,0,0,0,0,0,1500,1593,1498,1636,1498,0,1498,1498,1595,0,0,0,0,0,0,0,0,0,0,0,0,0,0,0,0,0,0,0,0,0,0,0,0,0,0,0,0,0,0,0,0,0,0,0,
0,0,0,0,0,0,1500,1641,1690,0,1401,1402,1498,1689,1643,0,0,0,0,0,0,0,0,0,0,0,0,0,0,0,0,0,0,0,0,0,0,0,0,0,0,0,0,0,0,0,0,0,0,0,
0,0,0,0,0,0,1500,1500,1593,1404,1402,1635,1498,1595,0,0,0,0,0,0,0,0,0,0,0,0,0,0,0,0,0,0,0,0,0,0,0,0,0,0,0,0,0,0,0,0,0,0,0,0,
0,0,0,0,0,0,1545,1546,1692,1635,1498,1498,1689,1643,0,0,0,0,0,0,0,0,0,0,0,0,0,0,0,0,0,0,0,0,0,0,0,0,0,0,0,0,0,0,0,0,0,0,0,0,
0,0,0,0,0,0,1593,1498,1404,1498,1404,1689,0,0,0,0,0,0,0,0,0,0,0,0,0,0,0,0,0,0,0,0,0,0,0,0,0,0,0,0,0,0,0,0,0,0,0,0,0,0,
0,0,0,0,0,0,1641,1642,1642,1642,1642,1643,0,0,0,0,0,0,0,0,0,0,0,0,0,0,0,0,0,0,0,0,0,0,0,0,0,0,0,0,0,0,0,0,0,0,0,0,0,0
</data>
 </layer>
 <layer id="4" name="Tile Layer 4" width="50" height="50">
  <data encoding="csv">
0,0,0,0,793,794,795,796,0,0,0,0,0,0,0,0,0,0,0,0,0,0,0,0,0,0,0,0,0,0,0,0,0,0,0,0,0,0,0,0,0,0,0,0,0,0,0,0,0,1035,
738,739,740,0,849,850,851,852,0,0,0,0,0,0,0,0,0,0,0,0,0,0,0,0,0,0,0,0,0,0,0,0,0,0,0,0,0,0,0,0,0,0,0,0,0,0,0,0,0,0,
794,795,796,0,0,0,0,0,0,0,0,0,0,0,0,0,0,0,0,0,0,0,0,0,0,0,0,0,0,0,0,0,0,0,0,0,0,0,0,0,0,0,0,0,0,0,0,0,0,0,
850,851,852,0,0,0,851,796,0,0,0,0,0,0,0,245,247,0,0,0,0,0,0,0,0,0,0,0,0,0,0,0,0,0,0,0,0,0,0,0,0,0,0,0,0,0,0,0,335,336,
0,0,737,738,739,740,0,0,0,0,0,0,0,0,0,0,0,0,0,0,0,0,0,0,0,0,0,0,0,0,0,0,716,0,0,0,0,0,0,0,0,0,0,0,0,0,0,0,0,0,
738,739,740,794,795,796,0,0,0,0,0,0,0,0,0,0,0,0,0,0,0,0,0,0,0,0,0,0,0,0,0,0,0,437,439,0,0,0,0,0,0,0,0,0,0,0,0,0,0,0,
794,795,796,850,851,852,0,0,0,0,0,0,0,0,0,0,0,0,0,0,0,0,0,0,0,0,0,0,0,0,0,0,0,0,0,0,0,0,0,0,0,0,0,0,0,0,0,0,0,0,
850,851,852,906,907,908,0,0,0,0,0,0,0,0,0,0,0,0,0,0,0,0,0,0,0,0,0,0,0,0,0,0,0,0,0,0,1232,0,0,0,0,0,0,448,0,0,0,0,448,0,
906,907,908,0,0,0,0,0,0,0,0,0,0,0,0,0,0,0,0,0,0,0,0,0,0,0,0,0,0,0,0,0,0,0,0,0,0,0,0,0,0,0,0,0,0,0,0,0,0,0,
0,0,0,0,0,0,0,0,0,0,0,0,0,0,0,0,789,0,0,0,0,0,0,0,0,0,0,0,0,0,0,0,0,0,0,0,0,0,0,0,0,0,0,0,0,0,0,0,0,827,
0,0,0,0,0,0,0,0,0,0,0,0,0,0,0,0,0,0,0,0,0,0,0,0,0,0,0,0,0,0,0,0,0,0,669,0,671,0,0,0,670,0,0,0,672,0,0,0,0,0,
0,0,0,0,0,0,0,0,0,0,0,0,0,0,0,0,0,0,0,0,0,0,0,0,0,0,0,0,0,0,0,0,0,0,1272,0,1272,0,0,0,0,0,0,0,0,0,0,0,0,0,
0,0,0,0,0,0,0,0,0,0,0,0,0,0,0,0,0,0,0,0,0,0,0,0,0,0,0,0,0,0,0,0,0,0,0,0,0,0,0,0,0,0,0,0,0,0,0,0,0,0,
0,0,0,0,0,0,0,0,0,0,0,0,0,0,0,0,0,0,0,0,0,0,0,0,0,0,0,0,0,0,0,0,0,0,0,0,0,0,0,0,0,0,0,0,0,0,0,0,0,0,
0,0,0,0,0,0,0,0,0,0,0,0,0,0,0,0,0,696,0,0,0,0,0,0,0,0,0,0,0,0,0,0,0,0,0,0,0,0,0,0,0,0,0,0,0,0,0,0,0,0,
0,0,0,0,0,0,0,0,0,0,0,0,0,0,0,0,0,303,0,0,0,0,0,0,0,0,0,0,0,0,0,0,0,0,0,0,0,0,0,0,0,0,0,0,0,0,0,0,0,0,
0,0,0,0,0,0,0,0,0,0,0,0,0,0,0,0,0,0,0,0,0,0,0,0,0,0,0,0,0,0,0,0,0,0,0,0,0,0,0,0,0,0,0,0,0,0,0,0,0,0,
0,0,0,0,0,0,0,0,0,0,0,0,0,0,0,0,0,0,0,0,0,0,0,0,0,0,0,0,0,0,0,0,0,0,0,0,0,0,0,0,0,0,0,0,0,0,0,0,0,0,
0,0,0,0,0,0,0,0,0,0,0,0,0,0,0,0,0,0,0,0,0,0,0,0,0,0,0,0,0,0,0,0,0,0,0,0,0,0,0,0,0,0,0,0,0,0,0,0,0,0,
0,0,0,0,0,0,0,0,0,0,0,0,0,0,0,0,0,0,0,0,0,0,0,0,0,0,0,0,0,0,0,0,0,0,0,0,0,0,0,0,0,0,0,0,0,0,0,0,0,0,
0,0,0,0,0,0,0,0,0,0,0,0,0,0,0,0,0,0,0,0,0,0,0,0,0,0,0,0,0,0,0,0,0,0,0,0,0,0,0,0,0,0,0,0,0,0,0,0,0,0,
0,799,799,0,0,0,0,0,0,0,0,0,0,0,0,0,0,0,0,0,0,0,0,0,0,0,0,0,0,0,0,0,0,0,0,0,0,0,0,0,0,0,0,0,0,0,0,0,0,0,
0,0,0,0,0,0,0,0,0,0,0,0,0,0,0,0,0,0,0,0,0,0,0,0,0,0,0,0,0,0,0,0,0,0,0,0,0,0,0,0,0,0,0,0,0,0,0,0,0,0,
0,0,0,0,0,0,0,0,0,0,0,0,0,0,0,0,0,0,0,0,0,0,0,0,0,0,0,0,0,0,0,0,0,0,0,0,0,0,0,0,0,0,0,0,0,0,0,0,0,0,
0,0,0,0,0,0,0,0,0,0,0,0,0,0,0,0,0,0,0,0,0,0,0,0,0,0,0,0,0,0,0,0,0,0,0,0,0,0,0,0,0,0,0,0,0,0,0,0,0,0,
0,0,0,0,0,0,0,0,0,0,0,0,0,0,0,0,0,0,0,0,0,0,0,0,0,0,0,0,0,0,0,0,0,1269,1271,0,0,0,0,0,0,0,0,0,0,0,0,0,0,0,
0,0,0,0,0,0,0,0,0,0,0,0,0,0,0,0,0,0,0,0,0,0,0,0,0,0,0,0,0,0,0,0,0,0,0,677,0,0,0,0,0,790,0,0,0,0,0,0,0,0,
0,0,0,0,0,0,0,0,0,0,0,0,0,0,0,0,0,0,0,0,0,0,0,0,0,0,0,0,0,0,0,0,0,0,0,0,0,0,0,0,0,0,0,0,0,0,0,0,0,0,
0,0,0,0,0,0,0,0,0,0,0,0,0,0,0,0,0,0,0,0,0,0,0,0,0,0,0,0,0,0,0,0,0,0,0,0,0,0,0,0,0,0,0,0,0,0,0,0,0,0,
0,0,0,0,0,0,0,0,0,0,0,0,0,0,0,0,0,0,0,0,0,0,0,0,0,0,0,0,0,0,0,0,0,0,0,0,0,0,0,0,0,0,0,0,0,0,0,0,0,0,
0,0,0,0,0,0,0,0,0,0,0,0,0,0,0,0,0,0,0,0,0,0,0,0,0,0,0,0,0,0,0,0,0,0,0,0,0,0,0,0,0,0,0,0,0,0,0,0,0,0,
0,0,0,0,0,0,0,0,0,0,0,0,0,0,0,0,0,0,0,0,0,0,0,0,0,0,0,0,0,0,0,0,0,0,0,0,0,0,0,0,0,0,0,0,0,0,0,0,0,0,
0,0,0,0,0,0,0,0,0,0,0,0,0,0,0,0,0,0,0,0,1885,694,0,0,0,0,0,0,0,0,0,0,0,0,0,0,0,0,0,0,0,0,0,0,0,0,0,0,0,0,
742,743,744,0,0,0,0,0,0,0,0,0,0,0,0,0,0,0,0,0,303,303,0,0,0,0,0,0,0,0,0,0,0,0,0,0,0,0,0,0,0,0,0,0,0,0,0,0,0,0,
798,799,800,0,0,0,0,0,0,0,0,0,0,0,0,0,0,0,0,0,0,0,0,0,0,0,0,0,0,0,0,0,0,0,0,0,0,0,0,0,0,0,0,0,0,0,0,0,0,0,
854,855,856,0,0,0,0,0,0,0,0,0,0,0,0,0,0,0,0,0,0,0,0,0,0,0,0,0,0,0,0,0,0,0,0,0,0,0,0,0,0,0,0,0,0,0,0,0,0,0,
910,911,912,0,0,0,0,0,0,0,0,0,0,0,0,0,0,0,0,0,0,0,0,0,0,0,0,0,0,0,0,0,0,0,0,0,0,0,0,0,0,0,0,0,0,0,0,0,0,0,
0,0,0,0,0,0,0,0,0,0,0,0,0,0,0,0,0,0,0,0,0,0,0,0,0,0,0,0,0,0,0,0,0,0,0,0,0,0,0,0,0,0,0,0,0,0,0,0,0,0,
0,0,0,0,0,0,0,0,0,0,0,0,0,0,0,0,0,0,0,0,0,0,0,0,0,0,0,0,0,0,0,0,0,0,0,0,0,0,0,0,0,0,0,0,0,0,0,0,0,0,
0,0,0,0,0,0,0,0,0,0,0,0,0,0,0,0,0,0,0,0,0,0,0,0,0,0,0,0,0,0,0,0,0,0,0,0,0,0,0,0,0,0,0,0,0,0,0,0,0,0,
0,0,0,0,0,0,0,0,0,0,0,0,0,0,0,0,0,0,0,0,0,0,0,0,0,0,0,0,0,0,0,0,0,0,0,0,0,0,0,0,0,0,0,0,0,0,0,0,0,0,
0,0,0,0,0,0,0,0,0,0,0,0,0,0,0,0,0,0,0,0,0,0,0,0,0,0,0,0,0,0,0,0,0,0,0,0,0,0,0,0,0,0,0,0,0,0,0,0,0,0,
0,0,0,0,0,0,0,0,0,0,0,0,0,0,0,0,0,0,0,0,0,0,0,0,0,0,0,0,0,0,0,0,0,0,0,0,0,0,0,0,0,0,0,0,0,0,0,0,0,0,
0,0,0,0,0,0,0,0,2162,0,0,0,0,0,0,0,0,0,0,0,0,0,0,0,0,0,0,0,0,0,0,0,0,0,0,0,0,0,0,0,0,0,0,0,0,0,0,0,0,0,
0,0,0,0,0,0,0,0,0,0,0,0,0,0,0,0,0,0,0,0,0,0,0,0,0,0,0,0,0,0,0,0,0,0,0,0,0,0,0,0,0,0,0,0,0,0,0,0,0,0,
0,0,0,0,0,0,0,0,0,0,1381,2280,0,0,0,0,0,0,0,0,0,0,0,0,0,0,0,0,0,0,0,0,0,0,0,0,0,0,0,0,0,0,0,0,0,0,0,0,0,0,
0,0,0,0,0,0,0,0,0,0,0,0,2162,0,0,0,0,0,0,0,0,0,0,0,0,0,0,0,0,0,0,0,0,0,0,0,0,0,0,0,0,0,0,0,0,0,0,0,0,0,
0,0,0,0,0,0,0,0,0,0,0,0,0,0,0,0,0,0,0,0,0,0,0,0,0,0,0,0,0,0,0,0,0,0,0,0,0,0,0,0,0,0,0,0,0,0,0,0,0,0,
0,0,0,0,0,0,0,0,0,0,0,0,0,0,0,0,0,0,0,0,0,0,0,0,0,0,0,0,0,0,0,0,0,0,0,0,0,0,0,0,0,0,0,0,0,0,0,0,0,0,
0,0,0,0,0,0,0,0,0,0,0,0,0,0,0,0,0,0,0,0,0,0,0,0,0,0,0,0,0,0,0,0,0,0,0,0,0,0,0,0,0,0,0,0,0,0,0,0,0,0
</data>
 </layer>
</map>
